art/standard/gamepad/ouya/touchpad.svg

<svg xmlns="http://www.w3.org/2000/svg" version="1.1" xmlns:xlink="http://www.w3.org/1999/xlink" preserveAspectRatio="none" x="0px" y="0px" width="100px" height="100px" viewBox="0 0 100 100">
<defs>
<linearGradient id="Gradient_1" gradientUnits="userSpaceOnUse" x1="42.2625" y1="95.875" x2="86.1375" y2="3.2249999999999943" spreadMethod="pad">
<stop  offset="0%" stop-color="#272727"/>

<stop  offset="100%" stop-color="#727272"/>
</linearGradient>

<linearGradient id="Gradient_2" gradientUnits="userSpaceOnUse" x1="120.35" y1="16.5" x2="120.35" y2="80.9" spreadMethod="pad">
<stop  offset="31.764705882352942%" stop-color="#272727"/>

<stop  offset="100%" stop-color="#575757"/>
</linearGradient>
</defs>

<g id="OUYA">
<g>
<g>
<g>
<path fill="url(#Gradient_1)" stroke="none" d="
M 21.3 16.55
Q 22.053515625 17.3107421875 22.05 18.35
L 22.05 47.05
Q 22.0654296875 47.2427734375 22.05 47.45 22.0037109375 48 22 48.55 22.0052734375 60.1583984375 30.2 68.3 38.3916015625 76.5447265625 50 76.55 59.1978515625 76.546875 66.25 71.35
L 20.7 8.9 12.8 8.9
Q 9.7388671875 8.9 9.05 11.3 8.919140625 11.879296875 8.9 12.6
L 8.9 87.45
Q 8.919140625 88.170703125 9.05 88.75 9.7388671875 91.15 12.8 91.15
L 80.65 91.15 69.2 75.45
Q 60.8767578125 81.553125 50 81.55 36.3083984375 81.5552734375 26.65 71.85 16.9947265625 62.2416015625 17 48.55 16.9962890625 47.8 17.05 47.05
L 17.05 18.35
Q 17.0462890625 17.3107421875 17.75 16.55 18.5107421875 15.8462890625 19.55 15.85 20.5890625 15.8462890625 21.3 16.55 Z"/>

<path fill="url(#Gradient_2)" stroke="none" d="
M 83.05 18.35
Q 83.053515625 17.3107421875 82.3 16.55 81.5890625 15.8462890625 80.55 15.85 79.5107421875 15.8462890625 78.75 16.55 78.0462890625 17.3107421875 78.05 18.35
L 78.05 47.3
Q 78.05 47.940625 78.05 48.55 78.0447265625 60.1583984375 69.8 68.3 68.11796875 70.03359375 66.25 71.35 59.1978515625 76.546875 50 76.55 38.3916015625 76.5447265625 30.2 68.3 22.0052734375 60.1583984375 22 48.55 22.0037109375 48 22.05 47.45 22.0654296875 47.2427734375 22.05 47.05
L 22.05 18.35
Q 22.053515625 17.3107421875 21.3 16.55 20.5890625 15.8462890625 19.55 15.85 18.5107421875 15.8462890625 17.75 16.55 17.0462890625 17.3107421875 17.05 18.35
L 17.05 47.05
Q 16.9962890625 47.8 17 48.55 16.9947265625 62.2416015625 26.65 71.85 36.3083984375 81.5552734375 50 81.55 60.8767578125 81.553125 69.2 75.45 71.3853515625 73.8630859375 73.35 71.85 83.0552734375 62.2416015625 83.05 48.55 83.05 47.940625 83.05 47.3
L 83.05 18.35 Z"/>

<path fill="#272727" stroke="none" d="
M 91.15 12.6
Q 91.130859375 11.8796875 90.95 11.3 90.3115234375 8.9 87.25 8.9
L 20.7 8.9 66.25 71.35
Q 68.11796875 70.03359375 69.8 68.3 78.0447265625 60.1583984375 78.05 48.55 78.05 47.940625 78.05 47.3
L 78.05 18.35
Q 78.0462890625 17.3107421875 78.75 16.55 79.5107421875 15.8462890625 80.55 15.85 81.5890625 15.8462890625 82.3 16.55 83.053515625 17.3107421875 83.05 18.35
L 83.05 47.3
Q 83.05 47.940625 83.05 48.55 83.0552734375 62.2416015625 73.35 71.85 71.3853515625 73.8630859375 69.2 75.45
L 80.65 91.15 87.25 91.15
Q 90.3115234375 91.15 90.95 88.75 91.130859375 88.1703125 91.15 87.45
L 91.15 12.6 Z"/>
</g>
</g>

<g>
<path stroke="#000000" stroke-width="5" stroke-linejoin="round" stroke-linecap="round" fill="none" d="
M 90.975 88.75
Q 91.130859375 88.1703125 91.15 87.45
L 91.15 12.6
Q 91.130859375 11.8796875 90.975 11.3
M 9.075 11.3
Q 8.919140625 11.879296875 8.9 12.6
L 8.9 87.45
Q 8.919140625 88.170703125 9.075 88.75"/>
</g>
</g>
</g>
</svg>

<svg width="100px" height="100px" preserveAspectRatio="none" version="1.1" viewBox="0 0 100 100" xmlns="http://www.w3.org/2000/svg">
 <defs>
  <linearGradient id="Gradient_1" x1="42.262" x2="86.138" y1="95.875" y2="3.225" gradientUnits="userSpaceOnUse">
   <stop stop-color="#272727" offset="0"/>
   <stop stop-color="#727272" offset="1"/>
  </linearGradient>
  <linearGradient id="Gradient_2" x1="120.35" x2="120.35" y1="16.5" y2="80.9" gradientUnits="userSpaceOnUse">
   <stop stop-color="#272727" offset=".31765"/>
   <stop stop-color="#575757" offset="1"/>
  </linearGradient>
 </defs>
 <rect x="9" y="9" width="82" height="82" ry="3" fill="#272727"/>
 <path d="m12 9h8l60 82h-68c-1.662 0-3-1.338-3-3v-76c0-1.662 1.338-3 3-3z" fill="url(#Gradient_1)" stop-color="#000000"/>
 <path d="m90.975 88.75q0.15586-0.57969 0.175-1.3v-74.85q-0.01914-0.72031-0.175-1.3m-81.9 0q-0.15586 0.5793-0.175 1.3v74.85q0.019141 0.7207 0.175 1.3" fill="none" stroke="#000" stroke-linecap="round" stroke-linejoin="round" stroke-width="5"/>
 <path d="m83.05 18.35q0.0035-1.0393-0.75-1.8-0.71094-0.70371-1.75-0.7-1.0393-0.0037-1.8 0.7-0.70371 0.76074-0.7 1.8v28.95q0 0.64062 0 1.25-0.0053 11.608-8.25 19.75-1.682 1.7336-3.55 3.05-7.0521 5.1969-16.25 5.2-11.608-0.005273-19.8-8.25-8.1947-8.1416-8.2-19.75 0.0037-0.55 0.05-1.1 0.01543-0.20723 0-0.4v-28.7q0.0035-1.0393-0.75-1.8-0.71094-0.70371-1.75-0.7-1.0393-0.0037-1.8 0.7-0.70371 0.76074-0.7 1.8v28.7q-0.05371 0.75-0.05 1.5-0.0053 13.692 9.65 23.3 9.6584 9.7053 23.35 9.7 10.877 0.0031 19.2-6.1 2.1854-1.5869 4.15-3.6 9.7053-9.6084 9.7-23.3 0-0.60938 0-1.25z" fill="url(#Gradient_2)"/>
</svg>
